X: 149
T:Reel de la Tuque Bleue
M:4/4
L:1/8
C:Trad.
S:Dawson Girdwood
R:Reel
K:F
e|f2 cf a2 gf|eceg bgeg|f2 cf fagf|edcB AFFe|!
f2 cf fagf|eceg bgeg|f2 cf fagf|1edcB AFFe:||2edcB AFFc||!
|:AFcF AFGA|BGdG BGGB|AFcF AFGA|B2 cB AFFc|!
AFcF AFGA|BG d2 B2 cB|Acde fdcB|1AFGD F3c:||2AFGD F2 e2||
